src/assets/svg/icons/fa/nuevos/classic/thin/helmet-un classic thin.svg

<svg xmlns="http://www.w3.org/2000/svg" viewBox="0 0 512 512"><!--! Font Awesome Pro 6.4.0 by @fontawesome - https://fontawesome.com License - https://fontawesome.com/license (Commercial License) Copyright 2023 Fonticons, Inc. --><path d="M16 240v72c0 30.9 25.1 56 56 56H218.2l30.2-90.5c1.1-3.3 4.1-5.5 7.6-5.5H464V240C464 116.3 363.7 16 240 16S16 116.3 16 240zm464 0v32h24c4.4 0 8 3.6 8 8s-3.6 8-8 8H472 368V496H472c4.4 0 8 3.6 8 8s-3.6 8-8 8H360c-2 0-4-.8-5.5-2.2L220.8 384H72c-39.8 0-72-32.2-72-72V240C0 107.5 107.5 0 240 0S480 107.5 480 240zM261.8 288l-28.6 85.7L352 485.5V288H261.8zm8.7-188.6L336 191V104c0-4.4 3.6-8 8-8s8 3.6 8 8V216c0 3.5-2.2 6.6-5.6 7.6s-6.9-.1-9-3L272 129v87c0 4.4-3.6 8-8 8s-8-3.6-8-8V104c0-3.5 2.2-6.6 5.6-7.6s6.9 .1 9 3zM144 104v72c0 17.7 14.3 32 32 32s32-14.3 32-32V104c0-4.4 3.6-8 8-8s8 3.6 8 8v72c0 26.5-21.5 48-48 48s-48-21.5-48-48V104c0-4.4 3.6-8 8-8s8 3.6 8 8z"/></svg>

<svg xmlns="http://www.w3.org/2000/svg" viewBox="0 0 512 512"><path d="M336 191V104C336 99.58 339.6 96 344 96C348.4 96 352 99.58 352 104V216C352 219.5 349.8 222.6 346.4 223.6C343.1 224.7 339.5 223.5 337.5 220.6L272 128.1V216C272 220.4 268.4 224 264 224C259.6 224 255.1 220.4 255.1 216V104C255.1 100.5 258.2 97.44 261.6 96.38C264.9 95.32 268.5 96.52 270.5 99.35L336 191zM144 176C144 193.7 158.3 208 176 208C193.7 208 208 193.7 208 176V104C208 99.58 211.6 96 216 96C220.4 96 224 99.58 224 104V176C224 202.5 202.5 224 176 224C149.5 224 128 202.5 128 176V104C128 99.58 131.6 96 136 96C140.4 96 144 99.58 144 104V176zM480 240V272H504C508.4 272 512 275.6 512 280C512 284.4 508.4 288 504 288H368V496H472C476.4 496 480 499.6 480 504C480 508.4 476.4 512 472 512H360C357.1 512 356 511.2 354.5 509.8L220.8 384H72C32.24 384 0 351.8 0 312V240C0 107.5 107.5 0 240 0C372.5 0 480 107.5 480 240zM16 312C16 342.9 41.07 368 72 368H218.2L248.4 277.5C249.5 274.2 252.6 272 256 272H464V240C464 116.3 363.7 16 240 16C116.3 16 16 116.3 16 240V312zM233.2 373.7L352 485.5V288H261.8L233.2 373.7z"/></svg>
